X: 330
T: BLOW THE CANDLE OUT
T: Seid amach an coinnioll
B: O'Neill's 330
M: 2/4
L: 1/16
Z: 1999 by John Chambers <jc@trillian.mit.edu>
N: "Moderate"
K:G
(dc) \
|B3c B2G2|E3F G2A2|B2c2 BA3G|G6 GA|
|B3c B2A2|B2e2 e2f2|g2a2 f3e|e4- e2 GA|
|B3c B2A2|B2e2 e2f2|g3b agfg|e3~f g2e2|
|d3c BAGF|E3F G2A2|B3c BAGF|G6||
